X:8
T:Old Towler,2voices. JGi.008
S:Joshua Gibbons MS,1823,Tealby,Lincs.
M:6/8
L:1/8
R:Air
O:Tealby,Lincolnshire
Z:VMP/R.Greig, 2009
K:F
[V:1]|:c|f2f d2B|A2Bc2_e|d2f egb|a2-a3{g}c|
[V:2]|:z|A2AB2B|F2GA2c|B2c ceg|f3-f2z|
[V:1]f2fa2f|d2dg2f|e2e {e}dcd|c2zz2:|
[V:2]A2Ac2A|=B2Bd2d|c2c=B2F|E2zz2:|
[V:1]|:c|g2ec2c|a2fc2c|e2f b2a|{a}g3-g2c|
[V:2]|:z|e2cG2G|f2cA2A|G2Ag2f|e3-e2z|
[V:1](c=B)c (de)f|(ga)b c’af|d2g f2e|f2z2zFA|
[V:2](ED).E (FG).A|(ef).g afd|B2GA2G|A2zz2z2|
[V:1]c3c3|(cf2)f2c|cAc cAc|Bf2-f2c/e/2|
[V:2]FAc AFA|FAc fcA|FAc FAc|FAc F2z|
[V:1]f3f3|fc’2-c’2f|fef fef|gb2-b2c’/2b/2|
[V:2]EGB EGB|EGc ege|cGE CEG|cGE C2z|
[V:1]afz2za|gcz2zb|agz2za|gcz2zc|
[V:2]fAzz2f|eczz2g|fAzz2f|eczz2E|
[V:1]faa faz|f2zf2z|faa faa|aHc’ zz(c/2B/2A/2G/2)|
[V:2]Aff Afz|A2zA2z|Aff Aff|fHaz2z2|
[V:1]F2B A2d|c2ba2f|f2f ede|f3a3|
[V:2]F2FF2F|F2ff2A/2A/2|d2dB2B|FAc EGc|
[V:1]a2a gfg|c’3b3|a2a gfg|f3z2z:|
[V:2]FAc EGc|FAc EAc|FAc BAB|A3zz2:|

